X:1
T:Dirty Old Town
M:4/4
L:1/4
K:E
 B, C E| G4-| G F/2E/2 G E| B,4-| B,2 G B| c4-| c B/2G/2 F E| G4-|\
 G z c B| G4-| G F/2E/2 G E| B,4-| B,2 C/2E/2 G| F4-| F z F/2E/2 C|\
 C4-| C||
